X:18
T:Patty's Choice
C:Michael Grey
B:William Livingstone Volume 1
H:
O:Kevin Fraser
Z:Kevin Fraser
Q:1/4=120
K:HP
M:C
L:1/8
R:Strathspey
U: R = ///
U: r = //
U: V = !accent!
V:M gstem=up stem=down name="Melody" sname="Melody" 
V:H gstem=up stem=down name="Harmony" sname="Harmony"
V:C gstem=up stem=down name="C-Harmony" sname="C-Harmony"
V:S gstem=up stem=down clef=none dyn=up name="Snare" sname="Snare"
V:B gstem=up stem=down clef=none dyn=up name="Bass" sname="Bass"
V:T gstem=up stem=down clef=none dyn=up name="Tenor" sname="Tenor"
V:BB gstem=up stem=down name="Brass Bass" sname="Bass" transpose=-1  octave=-2 clef=bass
V:BC gstem=up stem=down name="Brass Chord" sname="ABCD-D" transpose=-1
V:BD gstem=up stem=down name="Brass Chord 2" sname="ABCD-B" transpose=-1
V:P gstem=up stem=down name="Piano" sname="Piano" transpose=0 octave=-1
I:MIDI=program 110
%%MIDI gracedivider 40
% %score {M BC BD BB}
% %MIDI program 109 #bagpipes
%%MIDI vol 100
[V:M]   [| {gAGAG}A2 {ag}a>e {gfg}f>a (3fec  |{g}A2{GdGe}A>a {fg}f>c {gef}e2 | {gAGAG}A>a f<a {fg}f>a (3fec | {gef}e>c {ag}a>f {gef}e>c {gBG}B2 | 
[V:M]    | {gAGAG}A2 {ag}a>e {gfg}f>a (3fec  |{g}A2{GdGe}A>a {fg}f>c {gef}e2 | {g}A {GdGe}A>f {ag}a2 (3fec | {gef}e>c {ag}a>f {gef}e>c {gBG}B2 |] 
[V:M]    [|{ag}a>e {g}f<a {ef}e>a {cd}c>{e}A | {ag}a2 {GdG}a>e {gfg}f2 {gef}e2 | {gAGAG}A>a (3fga {fg}f>a (3fec | {gef}e>c {ag}a>f {gef}e>c {gBG}B2 | 
[V:M]    |{ag}a>e {g}f<a {ef}e>a {cd}c>{e}A | {ag}a2 {GdG}a>e {gfg}f2 {gef}e2 | {g}A {GdGe}A>f {ag}a2 (3fec | {gef}e>c {ag}a>f {gef}e>c {gBG}B2 |] 

